topics/special-relativity/Latex/images/svg/Cannon_Balls.svg

<svg xmlns="http://www.w3.org/2000/svg" xml:space="preserve" width="3949" height="2129" overflow="hidden"><defs><linearGradient id="b" x1="410" x2="979.714" y1="1860" y2="1860" gradientUnits="userSpaceOnUse" spreadMethod="reflect"><stop offset="0" stop-color="#FFF"/><stop offset=".37" stop-color="#D0CECE"/><stop offset=".81" stop-color="#262626"/><stop offset="1"/></linearGradient><linearGradient id="c" x1="416" x2="985.714" y1="1878" y2="1878" gradientUnits="userSpaceOnUse" spreadMethod="reflect"><stop offset="0" stop-color="#FFF"/><stop offset=".37" stop-color="#D0CECE"/><stop offset=".81" stop-color="#262626"/><stop offset="1"/></linearGradient><linearGradient id="d" x1="433" x2="1002.71" y1="1897" y2="1897" gradientUnits="userSpaceOnUse" spreadMethod="reflect"><stop offset="0" stop-color="#FFF"/><stop offset=".37" stop-color="#D0CECE"/><stop offset=".81" stop-color="#262626"/><stop offset="1"/></linearGradient><linearGradient id="e" x1="459" x2="1028.71" y1="1911" y2="1911" gradientUnits="userSpaceOnUse" spreadMethod="reflect"><stop offset="0" stop-color="#FFF"/><stop offset=".37" stop-color="#D0CECE"/><stop offset=".81" stop-color="#262626"/><stop offset="1"/></linearGradient><linearGradient id="f" x1="0" x2="569.714" y1="0" y2="0" gradientUnits="userSpaceOnUse" spreadMethod="reflect"><stop offset="0" stop-color="#FFF"/><stop offset=".37" stop-color="#D0CECE"/><stop offset=".81" stop-color="#262626"/><stop offset="1"/></linearGradient><linearGradient id="g" x1="0" x2="569.714" y1="0" y2="0" gradientUnits="userSpaceOnUse" spreadMethod="reflect"><stop offset="0" stop-color="#FFF"/><stop offset=".37" stop-color="#D0CECE"/><stop offset=".81" stop-color="#262626"/><stop offset="1"/></linearGradient><linearGradient id="h" x1="0" x2="569.714" y1="0" y2="0" gradientUnits="userSpaceOnUse" spreadMethod="reflect"><stop offset="0" stop-color="#FFF"/><stop offset=".37" stop-color="#D0CECE"/><stop offset=".81" stop-color="#262626"/><stop offset="1"/></linearGradient><linearGradient id="i" x1="0" x2="569.714" y1="0" y2="0" gradientUnits="userSpaceOnUse" spreadMethod="reflect"><stop offset="0" stop-color="#FFF"/><stop offset=".37" stop-color="#D0CECE"/><stop offset=".81" stop-color="#262626"/><stop offset="1"/></linearGradient><clipPath id="a"><path d="M47 242h3949v2129H47z"/></clipPath></defs><g clip-path="url(#a)" transform="translate(-47 -242)"><path fill="#767171" fill-rule="evenodd" d="M2794 439.823C2795.92 791.72 2904.28 265 2981 265v352c-76.72 0-187-528.22-187-177.074z"/><path fill="#767171" fill-rule="evenodd" d="M2946 310.836c-1.76 152.198 0 263.421 0 263.421l-1155.45 49.494-393.27 18.722c-148.75 9.137-179.73-102.564-185.81-164.818-9.37 27.858-34.14 28.603-58.94 31.534-37.18 3.045-69.53-34.281-69.53-65.185 0-33.949 32.35-70.929 69.53-68.331 24.8 3.378 49.59 5.676 58.94 33.534 6.08-61.677 37.06-175.723 185.81-166.702l393.27 18.605z"/><path fill="#FFF" d="M1362 351h1619v184H1362z"/><path fill="#FFF" fill-rule="evenodd" d="M1318 381.667c0-16.937 19.57-30.667 43.72-30.667h1109.56c24.15 0 43.72-.119 43.72 30.667v122.666c0 16.937-19.57 30.667-43.72 30.667H1361.72c-24.15 0-43.72-13.73-43.72-30.667z"/><path fill="#3B3838" fill-rule="evenodd" d="M1326 443c0-50.81 41.19-92 92-92s92 41.19 92 92-41.19 92-92 92-92-41.19-92-92"/><path fill="#767171" fill-rule="evenodd" d="M1758 1845.33c1.92 350.89 110.28-174.33 187-174.33v351c-76.72 0-187-526.72-187-176.57z"/><path fill="#767171" fill-rule="evenodd" d="M1910 1716.66c-1.76 151.82 0 262.77 0 262.77L754.552 2028.8l-393.269 18.67c-148.749 9.12-179.731-102.3-185.818-164.4-9.36 27.79-34.139 28.53-58.933 31.45C79.349 1917.56 47 1880.33 47 1849.5c0-33.86 32.349-70.75 69.532-68.16 24.794 3.37 49.587 5.66 58.933 33.45 6.087-61.52 37.069-175.29 185.818-166.29l393.269 18.56z"/><path fill="#FFF" d="M326 1757h1619v184H326z"/><path fill="#FFF" fill-rule="evenodd" d="M282 1786.83c0-17.03 19.574-30.83 43.719-30.83H1435.28c24.15 0 43.72-.12 43.72 30.83v123.34c0 17.03-19.57 30.83-43.72 30.83H325.719c-24.145 0-43.719-13.8-43.719-30.83z"/><path fill="none" stroke="url(#b)" stroke-miterlimit="8" stroke-width="10.313" d="M410 1860h564.558"/><path fill="none" stroke="url(#c)" stroke-miterlimit="8" stroke-width="10.313" d="M416 1878h564.558"/><path fill="none" stroke="url(#d)" stroke-miterlimit="8" stroke-width="10.313" d="M433 1897h564.558"/><path fill="none" stroke="url(#e)" stroke-miterlimit="8" stroke-width="10.313" d="M459 1911h564.56"/><path fill="none" stroke="url(#f)" stroke-miterlimit="8" stroke-width="10.313" d="M0 0h564.558" transform="matrix(1 0 0 -1 412 1841)"/><path fill="none" stroke="url(#g)" stroke-miterlimit="8" stroke-width="10.313" d="M0 0h564.558" transform="matrix(1 0 0 -1 420 1822)"/><path fill="none" stroke="url(#h)" stroke-miterlimit="8" stroke-width="10.313" d="M0 0h564.558" transform="matrix(1 0 0 -1 437 1805)"/><path fill="none" stroke="url(#i)" stroke-miterlimit="8" stroke-width="10.313" d="M0 0h564.558" transform="matrix(1 0 0 -1 465 1789)"/><path fill="#3B3838" fill-rule="evenodd" d="M959 1851c0-38.66 31.34-70 70-70s70 31.34 70 70-31.34 70-70 70-70-31.34-70-70"/><path fill="#767171" fill-rule="evenodd" d="M3889 1830.82c1.1 202.94 63.1-100.82 107-100.82v203c-43.9 0-107-304.63-107-102.12z"/><path fill="#767171" fill-rule="evenodd" d="M3976 1756.65c-1 87.68 0 151.75 0 151.75l-655.56 28.51-223.13 10.79c-84.39 5.26-101.97-59.09-105.42-94.95-5.31 16.05-19.37 16.48-33.44 18.17-21.1 1.75-39.45-19.75-39.45-37.55 0-19.56 18.35-40.86 39.45-39.37 14.07 1.95 28.13 3.27 33.44 19.32 3.45-35.53 21.03-101.23 105.42-96.03l223.13 10.72z"/><path fill="#FFF" d="M3078 1780h918v106h-918z"/><path fill="#FFF" fill-rule="evenodd" d="M3052 1797.67c0-9.76 11.1-17.67 24.8-17.67h629.4c13.7 0 24.8-.07 24.8 17.67v70.66c0 9.76-11.1 17.67-24.8 17.67h-629.4c-13.7 0-24.8-7.91-24.8-17.67z"/><path fill="#3B3838" fill-rule="evenodd" d="M3356 1832c0-50.81 41.19-92 92-92s92 41.19 92 92-41.19 92-92 92-92-41.19-92-92"/><path fill="#767171" d="M3773.76 2212.156h-520.538v44.688h520.538Zm-498.194-44.687-134.062 67.031 134.062 67.032Z"/><path d="M1216.5 1829.16h520.54v44.68H1216.5Zm498.19-44.69 134.07 67.03-134.07 67.03ZM1665.796 828.835l-12.33 13.567 13.567 12.33 12.33-13.567Zm-24.66 27.135-12.33 13.567 13.567 12.33 12.33-13.567Zm-24.661 27.134-12.33 13.568 13.567 12.33 12.33-13.567Zm-24.66 27.135-12.331 13.567 13.567 12.331 12.33-13.568Zm-24.661 27.135-12.331 13.567 13.568 12.331 12.33-13.568Zm-24.661 27.135-12.331 13.567 13.568 12.33 12.33-13.567Zm-24.661 27.134-12.33 13.568 13.567 12.33 12.33-13.567Zm-24.661 27.135-12.33 13.567 13.567 12.331 12.331-13.568Zm-24.66 27.135-12.331 13.567 13.568 12.331 12.33-13.568Zm-24.661 27.135-12.33 13.567 13.567 12.33 12.33-13.567Zm-24.661 27.134-12.33 13.568 13.567 12.33 12.331-13.567Zm-24.66 27.135-12.331 13.567 13.568 12.331 12.33-13.568Zm-24.661 27.135-12.33 13.567 13.567 12.331 12.33-13.568Zm-24.661 27.135-12.33 13.567 13.567 12.33 12.331-13.567Zm-25.564.87-16.64 59.197 57.342-22.206ZM2611.78 834.835l12.33 13.567-13.56 12.331-12.33-13.568Zm24.66 27.135 12.33 13.567-13.56 12.33-12.33-13.567Zm24.66 27.134 12.34 13.568-13.57 12.33-12.33-13.567Zm24.67 27.135 12.33 13.568-13.57 12.33-12.33-13.567Zm24.66 27.135 12.33 13.567-13.57 12.331-12.33-13.568Zm24.66 27.135 12.33 13.567-13.57 12.33-12.33-13.567Zm24.66 27.134 12.33 13.567-13.57 12.33-12.33-13.57Zm24.66 27.137 12.33 13.57-13.57 12.33-12.33-13.57Zm24.66 27.13 12.33 13.57-13.57 12.33-12.33-13.57Zm24.66 27.14 12.33 13.57-13.57 12.33-12.33-13.57Zm24.66 27.13 12.33 13.57-13.57 12.33-12.33-13.57Zm24.66 27.14 12.33 13.56-13.57 12.33-12.33-13.56Zm24.66 27.13 12.33 13.57-13.56 12.33-12.34-13.57Zm24.66 27.14 12.33 13.56-13.56 12.33-12.33-13.56Zm25.57.87 16.64 59.19-57.35-22.2Z"/></g></svg>

<svg width="3949" height="2129" xmlns="http://www.w3.org/2000/svg" xmlns:xlink="http://www.w3.org/1999/xlink" xml:space="preserve" overflow="hidden"><defs><clipPath id="clip0"><rect x="47" y="242" width="3949" height="2129"/></clipPath><linearGradient x1="410" y1="1860" x2="979.714" y2="1860" gradientUnits="userSpaceOnUse" spreadMethod="reflect" id="stroke1"><stop offset="0" stop-color="#FFFFFF"/><stop offset="0.37" stop-color="#D0CECE"/><stop offset="0.81" stop-color="#262626"/><stop offset="1"/></linearGradient><linearGradient x1="416" y1="1878" x2="985.714" y2="1878" gradientUnits="userSpaceOnUse" spreadMethod="reflect" id="stroke2"><stop offset="0" stop-color="#FFFFFF"/><stop offset="0.37" stop-color="#D0CECE"/><stop offset="0.81" stop-color="#262626"/><stop offset="1"/></linearGradient><linearGradient x1="433" y1="1897" x2="1002.71" y2="1897" gradientUnits="userSpaceOnUse" spreadMethod="reflect" id="stroke3"><stop offset="0" stop-color="#FFFFFF"/><stop offset="0.37" stop-color="#D0CECE"/><stop offset="0.81" stop-color="#262626"/><stop offset="1"/></linearGradient><linearGradient x1="459" y1="1911" x2="1028.71" y2="1911" gradientUnits="userSpaceOnUse" spreadMethod="reflect" id="stroke4"><stop offset="0" stop-color="#FFFFFF"/><stop offset="0.37" stop-color="#D0CECE"/><stop offset="0.81" stop-color="#262626"/><stop offset="1"/></linearGradient><linearGradient x1="-3.29612e-06" y1="0.000180446" x2="569.714" y2="0.000180446" gradientUnits="userSpaceOnUse" spreadMethod="reflect" id="stroke5"><stop offset="0" stop-color="#FFFFFF"/><stop offset="0.37" stop-color="#D0CECE"/><stop offset="0.81" stop-color="#262626"/><stop offset="1"/></linearGradient><linearGradient x1="-3.29612e-06" y1="0.000180446" x2="569.714" y2="0.000180446" gradientUnits="userSpaceOnUse" spreadMethod="reflect" id="stroke6"><stop offset="0" stop-color="#FFFFFF"/><stop offset="0.37" stop-color="#D0CECE"/><stop offset="0.81" stop-color="#262626"/><stop offset="1"/></linearGradient><linearGradient x1="-3.29612e-06" y1="0.000180446" x2="569.714" y2="0.000180446" gradientUnits="userSpaceOnUse" spreadMethod="reflect" id="stroke7"><stop offset="0" stop-color="#FFFFFF"/><stop offset="0.37" stop-color="#D0CECE"/><stop offset="0.81" stop-color="#262626"/><stop offset="1"/></linearGradient><linearGradient x1="-3.29612e-06" y1="0.000180446" x2="569.714" y2="0.000180446" gradientUnits="userSpaceOnUse" spreadMethod="reflect" id="stroke8"><stop offset="0" stop-color="#FFFFFF"/><stop offset="0.37" stop-color="#D0CECE"/><stop offset="0.81" stop-color="#262626"/><stop offset="1"/></linearGradient></defs><g clip-path="url(#clip0)" transform="translate(-47 -242)"><path d="M2794 439.823C2795.92 791.72 2904.28 265 2981 265L2981 617C2904.28 617 2794 88.7791 2794 439.926L2794 439.823Z" fill="#767171" fill-rule="evenodd"/><path d="M2946 310.836C2944.24 463.034 2946 574.257 2946 574.257L1790.55 623.751 1397.28 642.473C1248.53 651.61 1217.55 539.909 1211.47 477.655 1202.1 505.513 1177.33 506.258 1152.53 509.189 1115.35 512.234 1083 474.908 1083 444.004 1083 410.055 1115.35 373.075 1152.53 375.673 1177.33 379.051 1202.12 381.349 1211.47 409.207 1217.55 347.53 1248.53 233.484 1397.28 242.505L1790.55 261.11 2946 310.836Z" fill="#767171" fill-rule="evenodd"/><rect x="1362" y="351" width="1619" height="184" fill="#FFFFFF"/><path d="M1318 381.667C1318 364.73 1337.57 351 1361.72 351L2471.28 351C2495.43 351 2515 350.881 2515 381.667L2515 504.333C2515 521.27 2495.43 535 2471.28 535L1361.72 535C1337.57 535 1318 521.27 1318 504.333L1318 381.667Z" fill="#FFFFFF" fill-rule="evenodd"/><path d="M1326 443C1326 392.19 1367.19 351 1418 351 1468.81 351 1510 392.19 1510 443 1510 493.81 1468.81 535 1418 535 1367.19 535 1326 493.81 1326 443Z" fill="#3B3838" fill-rule="evenodd"/><path d="M1758 1845.33C1759.92 2196.22 1868.28 1671 1945 1671L1945 2022C1868.28 2022 1758 1495.28 1758 1845.43L1758 1845.33Z" fill="#767171" fill-rule="evenodd"/><path d="M1910 1716.66C1908.24 1868.48 1910 1979.43 1910 1979.43L754.552 2028.8 361.283 2047.47C212.534 2056.59 181.552 1945.17 175.465 1883.07 166.105 1910.86 141.326 1911.6 116.532 1914.52 79.3485 1917.56 47.0001 1880.33 47.0001 1849.5 47.0001 1815.64 79.3485 1778.75 116.532 1781.34 141.326 1784.71 166.119 1787 175.465 1814.79 181.552 1753.27 212.534 1639.5 361.283 1648.5L754.552 1667.06 1910 1716.66Z" fill="#767171" fill-rule="evenodd"/><rect x="326" y="1757" width="1619" height="184" fill="#FFFFFF"/><path d="M282 1786.83C282 1769.8 301.574 1756 325.719 1756L1435.28 1756C1459.43 1756 1479 1755.88 1479 1786.83L1479 1910.17C1479 1927.2 1459.43 1941 1435.28 1941L325.719 1941C301.574 1941 282 1927.2 282 1910.17L282 1786.83Z" fill="#FFFFFF" fill-rule="evenodd"/><path d="M410 1860 974.558 1860" stroke="url(#stroke1)" stroke-width="10.3125" stroke-miterlimit="8" fill="none" fill-rule="evenodd"/><path d="M416 1878 980.558 1878" stroke="url(#stroke2)" stroke-width="10.3125" stroke-miterlimit="8" fill="none" fill-rule="evenodd"/><path d="M433 1897 997.558 1897" stroke="url(#stroke3)" stroke-width="10.3125" stroke-miterlimit="8" fill="none" fill-rule="evenodd"/><path d="M459 1911 1023.56 1911" stroke="url(#stroke4)" stroke-width="10.3125" stroke-miterlimit="8" fill="none" fill-rule="evenodd"/><path d="M0 0 564.558 0.000360892" stroke="url(#stroke5)" stroke-width="10.3125" stroke-miterlimit="8" fill="none" fill-rule="evenodd" transform="matrix(1 -1.22465e-16 -1.22465e-16 -1 412 1841)"/><path d="M0 0 564.558 0.000360892" stroke="url(#stroke6)" stroke-width="10.3125" stroke-miterlimit="8" fill="none" fill-rule="evenodd" transform="matrix(1 -1.22465e-16 -1.22465e-16 -1 420 1822)"/><path d="M0 0 564.558 0.000360892" stroke="url(#stroke7)" stroke-width="10.3125" stroke-miterlimit="8" fill="none" fill-rule="evenodd" transform="matrix(1 -1.22465e-16 -1.22465e-16 -1 437 1805)"/><path d="M0 0 564.558 0.000360892" stroke="url(#stroke8)" stroke-width="10.3125" stroke-miterlimit="8" fill="none" fill-rule="evenodd" transform="matrix(1 -1.22465e-16 -1.22465e-16 -1 465 1789)"/><path d="M959 1851C959 1812.34 990.34 1781 1029 1781 1067.66 1781 1099 1812.34 1099 1851 1099 1889.66 1067.66 1921 1029 1921 990.34 1921 959 1889.66 959 1851Z" fill="#3B3838" fill-rule="evenodd"/><path d="M3889 1830.82C3890.1 2033.76 3952.1 1730 3996 1730L3996 1933C3952.1 1933 3889 1628.37 3889 1830.88L3889 1830.82Z" fill="#767171" fill-rule="evenodd"/><path d="M3976 1756.65C3975 1844.33 3976 1908.4 3976 1908.4L3320.44 1936.91 3097.31 1947.7C3012.92 1952.96 2995.34 1888.61 2991.89 1852.75 2986.58 1868.8 2972.52 1869.23 2958.45 1870.92 2937.35 1872.67 2919 1851.17 2919 1833.37 2919 1813.81 2937.35 1792.51 2958.45 1794 2972.52 1795.95 2986.58 1797.27 2991.89 1813.32 2995.34 1777.79 3012.92 1712.09 3097.31 1717.29L3320.44 1728.01 3976 1756.65Z" fill="#767171" fill-rule="evenodd"/><rect x="3078" y="1780" width="918" height="106" fill="#FFFFFF"/><path d="M3052 1797.67C3052 1787.91 3063.1 1780 3076.8 1780L3706.2 1780C3719.9 1780 3731 1779.93 3731 1797.67L3731 1868.33C3731 1878.09 3719.9 1886 3706.2 1886L3076.8 1886C3063.1 1886 3052 1878.09 3052 1868.33L3052 1797.67Z" fill="#FFFFFF" fill-rule="evenodd"/><path d="M3356 1832C3356 1781.19 3397.19 1740 3448 1740 3498.81 1740 3540 1781.19 3540 1832 3540 1882.81 3498.81 1924 3448 1924 3397.19 1924 3356 1882.81 3356 1832Z" fill="#3B3838" fill-rule="evenodd"/><path d="M1.27538e-05-22.3438 520.538-22.3435 520.538 22.344-1.27538e-05 22.3438ZM498.194-67.031 632.256 0.000360892 498.194 67.0315Z" fill="#767171" transform="matrix(-1 0 0 1 3773.76 2234.5)"/><path d="M1216.5 1829.16 1737.04 1829.16 1737.04 1873.84 1216.5 1873.84ZM1714.69 1784.47 1848.76 1851.5 1714.69 1918.53Z"/><path d="M6.78369-6.16517 19.114 7.4022 5.54666 19.7325-6.78369 6.16517ZM31.4444 20.9696 43.7747 34.5369 30.2074 46.8673 17.877 33.2999ZM56.1051 48.1043 68.4354 61.6717 54.868 74.002 42.5377 60.4347ZM80.7658 75.2391 93.0961 88.8064 79.5287 101.137 67.1984 87.5694ZM105.426 102.374 117.757 115.941 104.189 128.272 91.8591 114.704ZM130.087 129.509 142.418 143.076 128.85 155.406 116.52 141.839ZM154.748 156.643 167.078 170.211 153.511 182.541 141.181 168.974ZM179.409 183.778 191.739 197.345 178.172 209.676 165.841 196.108ZM204.069 210.913 216.4 224.48 202.832 236.811 190.502 223.243ZM228.73 238.048 241.06 251.615 227.493 263.945 215.163 250.378ZM253.391 265.182 265.721 278.75 252.154 291.08 239.823 277.513ZM278.051 292.317 290.382 305.884 276.814 318.215 264.484 304.647ZM302.712 319.452 315.042 333.019 301.475 345.35 289.145 331.782ZM327.373 346.587 339.703 360.154 326.136 372.484 313.805 358.917ZM352.937 347.457 369.577 406.654 312.235 384.448Z" transform="matrix(-1 0 0 1 1672.58 835)"/><path d="M2611.78 834.835 2624.11 848.402 2610.55 860.733 2598.22 847.165ZM2636.44 861.97 2648.77 875.537 2635.21 887.867 2622.88 874.3ZM2661.1 889.104 2673.44 902.672 2659.87 915.002 2647.54 901.435ZM2685.77 916.239 2698.1 929.807 2684.53 942.137 2672.2 928.57ZM2710.43 943.374 2722.76 956.941 2709.19 969.272 2696.86 955.704ZM2735.09 970.509 2747.42 984.076 2733.85 996.406 2721.52 982.839ZM2759.75 997.643 2772.08 1011.21 2758.51 1023.54 2746.18 1009.97ZM2784.41 1024.78 2796.74 1038.35 2783.17 1050.68 2770.84 1037.11ZM2809.07 1051.91 2821.4 1065.48 2807.83 1077.81 2795.5 1064.24ZM2833.73 1079.05 2846.06 1092.62 2832.49 1104.95 2820.16 1091.38ZM2858.39 1106.18 2870.72 1119.75 2857.15 1132.08 2844.82 1118.51ZM2883.05 1133.32 2895.38 1146.88 2881.81 1159.21 2869.48 1145.65ZM2907.71 1160.45 2920.04 1174.02 2906.48 1186.35 2894.14 1172.78ZM2932.37 1187.59 2944.7 1201.15 2931.14 1213.48 2918.81 1199.92ZM2957.94 1188.46 2974.58 1247.65 2917.23 1225.45Z"/></g></svg>
